X: 36108
T: Schottis Från Norrbotten
R: barndance
M: 4/4
K: Dminor
|:A,2|D2 D>E F2 F>G|A2 A>B A4|d2 d>e (3fgf e>f|d4- d>Ad>e|
f2 e2 d2 A>B|c2 B2 A2 F>G|A2 A>G F2 G2|A6 d>e|
f2 e2 d2 A>B|c>dc>B A2 F2|A>BA>G F2 E2|D6:|
|:A2|A>FD>F A>FD>F|A2 d2 c2 B2|A2 A>G F2 G2|A6 A2|
A>FD>F A>FD>F|A2 (3ded c2 (3BcB|A>BA>G F2 E2|D6:|

